server/sonar-web/src/main/webapp/images/logo.svg

<svg width="30" height="30" xmlns="http://www.w3.org/2000/svg" xmlns:svg="http://www.w3.org/2000/svg">
  <g>
    <path d="m20.68145,15.87129l0,4.75537q0,0.25759 -0.18824,0.44582t-0.44582,0.18823l-3.8043,0l0,-3.8043l-2.5362,0l0,3.8043l-3.8043,0q-0.25759,0 -0.44582,-0.18823t-0.18823,-0.44582l0,-4.75537q0,-0.00991 0.00495,-0.02972t0.00495,-0.02972l5.69654,-4.69593l5.69654,4.69593q0.00991,0.01981 0.00991,0.05944l0.00001,0zm2.20927,-0.68359l-0.61424,0.73312q-0.07926,0.08916 -0.20805,0.10897l-0.02972,0q-0.12879,0 -0.20805,-0.06935l-6.85566,-5.71635l-6.85567,5.71635q-0.11888,0.07925 -0.23777,0.06935q-0.12879,-0.01982 -0.20805,-0.10897l-0.61424,-0.73312q-0.07926,-0.09907 -0.06935,-0.23282t0.10898,-0.213l7.12315,-5.93431q0.31702,-0.25759 0.75293,-0.25759t0.75293,0.25759l2.41732,2.02104l0,-1.93187q0,-0.1387 0.08916,-0.22786t0.22786,-0.08916l1.90215,0q0.13869,0 0.22786,0.08916t0.08916,0.22786l0,4.04207l2.16964,1.80308q0.09907,0.07926 0.10898,0.213t-0.06935,0.23282l0.00001,0z" fill="#fff"/>
  </g>
</svg>

<svg width="100" height="30" xmlns="http://www.w3.org/2000/svg" xmlns:svg="http://www.w3.org/2000/svg">
    <g transform="matrix(1,0,0,1,35,0)">
        <path d="M20.681,15.871L20.681,20.627C20.681,20.798 20.619,20.947 20.493,21.072C20.368,21.198 20.219,21.261 20.047,21.261L16.243,21.261L16.243,17.456L13.707,17.456L13.707,21.261L9.903,21.261C9.731,21.261 9.582,21.198 9.457,21.072C9.331,20.947 9.269,20.798 9.269,20.627L9.269,15.871C9.269,15.865 9.27,15.855 9.273,15.842C9.277,15.828 9.278,15.818 9.278,15.812L14.975,11.116L20.672,15.812C20.678,15.825 20.681,15.845 20.681,15.871L20.681,15.871ZM22.891,15.188L22.276,15.921C22.224,15.98 22.154,16.017 22.068,16.03L22.039,16.03C21.953,16.03 21.884,16.007 21.831,15.96L14.975,10.244L8.119,15.96C8.04,16.013 7.961,16.036 7.882,16.03C7.796,16.017 7.726,15.98 7.674,15.921L7.059,15.188C7.006,15.122 6.983,15.044 6.99,14.955C6.997,14.866 7.033,14.795 7.099,14.742L14.222,8.808C14.433,8.636 14.684,8.55 14.975,8.55C15.266,8.55 15.517,8.636 15.728,8.808L18.145,10.829L18.145,8.897C18.145,8.804 18.175,8.728 18.234,8.669C18.294,8.609 18.37,8.58 18.462,8.58L20.364,8.58C20.457,8.58 20.533,8.609 20.592,8.669C20.652,8.728 20.681,8.804 20.681,8.897L20.681,12.939L22.851,14.742C22.917,14.795 22.953,14.866 22.96,14.955C22.967,15.044 22.944,15.122 22.891,15.188L22.891,15.188L22.891,15.188Z" style="fill:white;fill-rule:nonzero;"/>
    </g>
</svg>
